icons/op-work-packages-24.svg

<svg xmlns="http://www.w3.org/2000/svg" width="24" height="24" viewBox="0 0 24 24"><path d="M17 14v-3h-4v-1h3V4H9v6h3v1H7v3H4v6h7v-6H8v-2h8v2h-3v6h7v-6h-3Zm-7 1v1H5v-1h5Zm0-9V5h5v1h-5Zm9 10h-5v-1h5v1Z"/></svg>

<svg width="24" height="24" viewBox="0 0 24 24" fill="none" xmlns="http://www.w3.org/2000/svg">
<path d="M17 14V11H13V10H16V4H9V10H12V11H7V14H4V20H11V14H8V12H16V14H13V20H20V14H17ZM10 15V16H5V15H10ZM10 6V5H15V6H10ZM19 16H14V15H19V16Z" fill="black"/>
</svg>
